X:974
T:Dick Tobin's
S:Chulrua, Barefoot On the Alter
Z:Nigel Gatherer
L:1/8
M:2/4
K:Ador
e/d/ | eA AB | cd/c/ BA | dG GB | dB AG |
EA AB | cd/c/ BA | Be dB | BA A :|
B | e>e ed | eA AB | d>e dc | B/A/G Bd |
e>e ed | ef ge | dB GA | BA A :|
<end>
<start>
